!!!COM: Haydn, Franz Joseph
!!!OTL: String Quartet in E-flat Major
!!!OPS: Opus 71
!!!ONM: No. 3
!!!OMD: Vivace
!!!OMV: 1
!!!SCT: H III:71
!!!SCA: Thematisch-bibliographisches Werkevererzeichnis (A. van Hoboken)
!!!YOR: Trautwein Edition
!!!ENC: Frances Bennion
!!!CDT: 1732/3/31/-1809/5/31/
!!!CNT: Oesterreich
!!!YEC: Copyright (c) 1994, 2000 Center for Computer Assisted Research in the Humanities
!!!YEM: Rights to all derivative editions reserved.
!!!YEM: Refer to licensing agreement for further details.
!!!YEN: United States of America
**kern	**kern	**kern	**kern
*k[b-e-a-]	*k[b-e-a-]	*k[b-e-a-]	*k[b-e-a-]
*E-:	*E-:	*E-:	*E-:
*clefF4	*clefC3	*clefF	*clefF
*M2/4	*M2/4	*M2/4	*M2/4
4EE- 4GG 4E-	4e- 4G	4G 4e- 4ee-	4e- 4G 4b- 4gg
4r	4r	4r	4r
=2	=2	=2	=2
2r	2r	2r	2r
=3	=3	=3	=3
8EE-	2r	2g	2b-
8GG	.	.	.
8BB-	.	.	.
8E-	.	.	.
=4	=4	=4	=4
8G	2r	2e-	4g
8c	.	.	.
8A	.	.	4cc
8F	.	.	.
=5	=5	=5	=5
8B-	2r	8d	8f
8B-	.	8d	8b-
8F	.	8e-	16a
.	.	.	16b-
8F	.	8e-	16cc
.	.	.	16a
=6	=6	=6	=6
8B-	2r	8d	8b-
8B-	.	8d	8b-
8B-	.	8d	8b-
8r	.	8r	8r
=7	=7	=7	=7
8F	8f	8f	8f
8F	8f	8f	8f
8F	8f	8f	8f
8r	8r	8r	8r
=8	=8	=8	=8
8BB-	8B-	8B-	8B-
8BB-	8B-	8B-	8B-
8BB-	8B-	8B-	8B-
8r	8r	8r	8r
=9	=9	=9	=9
8FF	2r	2a-	2cc
8AA-	.	.	.
8C	.	.	.
8F	.	.	.
=10	=10	=10	=10
8B-	2r	4d	4f
8A-	.	.	.
8G	.	4d-	4b-
8E-	.	.	.
=11	=11	=11	=11
8A-	2r	4c	8a-
8AA-	.	.	16g
.	.	.	16f
8BB-	.	8B-	16e-
.	.	.	16d
8BB-	.	8A-	16f
.	.	.	16d
=12	=12	=12	=12
8E-	2r	8G	8e-
8E-	.	8G	8e-
8E-	.	8G	8e-
8r	.	8r	8r
=13	=13	=13	=13
8BB-	8B-	8B-	8B-
8BB-	8B-	8B-	8B-
8BB-	8B-	8B-	8B-
8r	8r	8r	8r
=14	=14	=14	=14
8GG	8G	8G	8G
8GG	8G	8G	8G
8GG	8G	8G	8G
8r	8r	8r	8r
=15	=15	=15	=15
2r	8E-	2gg	2bb-
.	8G	.	.
.	8B-	.	.
.	8e-	.	.
=16	=16	=16	=16
2r	8g	2ee-	4gg
.	8cc	.	.
.	8a	.	4ccc
.	8f	.	.
=17	=17	=17	=17
2r	8b-	8dd	8ff
.	8b-	8dd	8bb-
.	8f	8ee-	16aa
.	.	.	16bb-
.	8f	8ee-	16ccc
.	.	.	16aa
=18	=18	=18	=18
2r	8b-	8dd	8bb-
.	8b-	8dd	8bb-
.	8b-	8dd	8bb-
.	8r	8r	8r
=19	=19	=19	=19
8F	8f	8f	8f
8F	8f	8f	8f
8F	8f	8f	8f
8r	8r	8r	8r
=20	=20	=20	=20
8BB-	8B-	8B-	8B-
8BB-	8B-	8B-	8B-
8BB-	8B-	8B-	8B-
8r	8r	8r	8r
=21	=21	=21	=21
2r	8F	2aa-	2ccc
.	8A-	.	.
.	8c	.	.
.	8f	.	.
=22	=22	=22	=22
2r	8b-	4dd	4ff
.	8a-	.	.
.	8g	4dd-	4bb-
.	8e-	.	.
=23	=23	=23	=23
2r	8a-	4cc	8aa-
.	8A-	.	16gg
.	.	.	16ff
.	8B-	8b-	16ee-
.	.	.	16dd
.	8B-	8a-	16ff
.	.	.	16dd
=24	=24	=24	=24
8EE-	[2G	4g	2eee-
8GG	.	.	.
8BB-	.	[4B-	.
8E-	.	.	.
=25	=25	=25	=25
8EE-	2G]	4B-]	4.d-
8EE-	.	.	.
8EE-	.	4B-	.
8EE-	.	.	16c
.	.	.	16d-
=26	=26	=26	=26
8EE-	2A-	2c	8c
8EE-	.	.	16ccc
.	.	.	16bb-
8EE-	.	.	16aa-
.	.	.	16gg
8EE-	.	.	16ff
.	.	.	16ee-
=27	=27	=27	=27
8EE-	4.f	4.a-	16dd
.	.	.	16ee-
8EE-	.	.	16ff
.	.	.	16gg
8EE-	.	.	16aa-
.	.	.	16bb-
8EE-	16e-	16g	16ccc
.	16f	16a-	16ddd
=28	=28	=28	=28
8EE-	4e-	4g	2eee-
8GG	.	.	.
8BB-	[4G	[4B-	.
8E-	.	.	.
=29	=29	=29	=29
8EE-	4G]	4B-]	4.d-
8EE-	.	.	.
8EE-	4G	4B-	.
8EE-	.	.	16c
.	.	.	16d-
=30	=30	=30	=30
8EE-	2A-	2c	8c
8EE-	.	.	16ccc
.	.	.	16bb-
8EE-	.	.	16aa-
.	.	.	16gg
8EE-	.	.	16ff
.	.	.	16ee-
=31	=31	=31	=31
8EE-	4.f	4.a-	16dd
.	.	.	16ee-
8EE-	.	.	16ff
.	.	.	16gg
8EE-	.	.	16aa-
.	.	.	16bb-
8EE-	16e-	16g	16ccc
.	16f	16a-	16ddd
=32	=32	=32	=32
4EE-	8e-	8g	8eee-
.	8g	8b-	8eee-
4r	8f	8a-	16ddd
.	.	.	16eee-
.	8f	8a-	16fff
.	.	.	16ddd
=33	=33	=33	=33
2r	8g	8g	8eee-
.	8g	8b-	8eee-
.	8f	8a-	16ddd
.	.	.	16eee-
.	8f	8a-	16fff
.	.	.	16ddd
=34	=34	=34	=34
2r	8g	8g	8eee-
.	8ee-	8gg	8ccc
.	8dd	8ff	16bb
.	.	.	16ccc
.	8dd	8ff	16ddd
.	.	.	16bb
=35	=35	=35	=35
2r	8ee-	8gg	8ccc
.	8dd	8ff	8bb-
.	8cc	8ee-	16aa
.	.	.	16bb-
.	8cc	8ee-	16ccc
.	.	.	16aa
=36	=36	=36	=36
2r	8dd	8ff	8bb-
.	8cc	8ee-	8aa
.	8b-	8dd	16gg
.	.	.	16aa
.	8b-	8dd	16bb-
.	.	.	16gg
=37	=37	=37	=37
2r	8a	8cc	16ff
.	.	.	16gg
.	8a	8cc	16aa
.	.	.	16ff
.	8g	8b-	16ee
.	.	.	16ff
.	8g	8b-	16gg
.	.	.	16ee
=38	=38	=38	=38
[2F	8f	8a	8ff
.	8A	8c	8ff
.	8B-	8d-	8gg-
.	8A	8c	8ff
=39	=39	=39	=39
2F_	8B-	8d-	8gg-
.	8A	8c	8ff
.	8G	8B-	16ee
.	.	.	16bb-
.	8B-	8d-	16gg
.	.	.	16ee
=40	=40	=40	=40
2F_	8A	8c	8ff
.	8A	8c	8ff
.	8B-	8d-	8gg-
.	8A	8d-	8ff
=41	=41	=41	=41
2F]	8B-	8d-	8gg-
.	8A	8c	8ff
.	8G	8B-	16ee
.	.	.	16bb-
.	8B-	8d-	16gg
.	.	.	16ee
=42	=42	=42	=42
8F	8A	8c	8ff
8r	8r	8r	8r
8F	8f 8A	8a 8f 8c	8f 8aa 8cc
8r	8r	8r	8r
=43	=43	=43	=43
4F	4f 4A	4f 4a 4c	4f 4a 4ff
4r	4r	4r	4r
=44	=44	=44	=44
2r	2f	4r	4r
.	.	[4dd	[4ff
=45	=45	=45	=45
2r	4d	4dd]	4ff]
.	4g	4b-	4dd
=46	=46	=46	=46
2r	8c	4ee-	4gg
.	16d	.	.
.	16e-	.	.
.	8f	4a	8cc
.	8e-	.	16dd
.	.	.	16ee-
=47	=47	=47	=47
2r	8d	4a-	4ff
.	8e-	.	.
.	8d	[4ff	4aa-
.	8c	.	.
=48	=48	=48	=48
2B	2d	4ff]	4gg
.	.	[4ff	8aa-
.	.	.	8gg
=49	=49	=49	=49
4G	4B	8ff]	2gg
.	.	8dd	.
4c	4e-	8ee-	.
.	.	8ee-	.
=50	=50	=50	=50
2A	2c	[2ee-	4gg-
.	.	.	4ff
=51	=51	=51	=51
4F	4A	4ee-]	16ccc
.	.	.	16aa
.	.	.	16ccc
.	.	.	16aa
8B-	8d	4dd	8ff
16c	16e-	.	8ff
16d	16f	.	.
=52	=52	=52	=52
[2e-	4g	2dd	2ff
.	16a-	.	.
.	16a	.	.
.	16b-	.	.
.	16b	.	.
=53	=53	=53	=53
4e-]	4cc	4g	16ee-
.	.	.	16ee
.	.	.	16ff
.	.	.	16ff#
4r	4r	4r	8gg
.	.	.	8gg
=54	=54	=54	=54
4e-	4g	4cc	16ee-
.	.	.	16ee
.	.	.	16ff
.	.	.	16ff#
4r	4r	4r	8gg
.	.	.	8gg
=55	=55	=55	=55
4e-	4g	4cc	16ee-
.	.	.	16ee
.	.	.	16ff
.	.	.	16ff#
4r	4r	4r	8gg
.	.	.	8gg
=56	=56	=56	=56
8F	8B-	8d	16dd
.	.	.	16ee-
8r	8r	8r	16ee
.	.	.	16ff
8F	8B-	8d	16dd
.	.	.	16ee-
8r	8r	8r	16ee
.	.	.	16ff
=57	=57	=57	=57
8F	8B-	8d	16dd
.	.	.	16ee-
8r	8r	8r	16ee
.	.	.	16ff
8F	8B-	8d	16dd
.	.	.	16ee-
8r	8r	8r	16ee
.	.	.	16ff
=58	=58	=58	=58
8F	8B-	8d	16dd
.	.	.	16ee-
8F	8B-	8d	16ee
.	.	.	16ff
8F	8B-	8d	16ff#
.	.	.	16gg
8F	8B-	8d	16aa-
.	.	.	16aa
=59	=59	=59	=59
4F	4B-	4d	8bb-
.	.	.	8ddd
4r	4r	4r	8fff
.	.	.	8fff
=60	=60	=60	=60
8F	16e-	[2a	[2cc
.	16f	.	.
8F	16d	.	.
.	16e-	.	.
8F	16c	.	.
.	16d	.	.
8F	16B-	.	.
.	16c	.	.
=61	=61	=61	=61
8FF	16A	2a]	2cc]
.	16B-	.	.
8FF	16G	.	.
.	16A	.	.
8FF	16F	.	.
.	16G	.	.
8FF	16E-	.	.
.	16F	.	.
=62	=62	=62	=62
4BB-	4D	8b-	4b-
.	.	8f	.
4r	4r	8f	4r
.	.	8f	.
=63	=63	=63	=63
2r	2r	8f	2r
.	.	8f	.
.	.	8f	.
.	.	8f	.
=64	=64	=64	=64
2r	4d	8f	2b-
.	.	8f	.
.	4B-	8f	.
.	.	8f	.
=65	=65	=65	=65
2r	2e-	8f	4g
.	.	8f	.
.	.	8f	4cc
.	.	8f	.
=66	=66	=66	=66
2r	4d	8f	2b-
.	.	8f	.
.	4B-	8f	.
.	.	8f	.
=67	=67	=67	=67
2r	2e-	8f	4g
.	.	8f	.
.	.	8f	4cc
.	.	8f	.
=68	=68	=68	=68
2r	4d	8f	2b-
.	.	8f	.
.	4B-	8f	.
.	.	8f	.
=69	=69	=69	=69
2F	4c	4e-	4a
.	4f	4a	4ee-
=70	=70	=70	=70
4G	4g	4b-	4dd
4E-	4e-	4g	4cc
=71	=71	=71	=71
2F	4d	4f	8b-
.	.	.	16a
.	.	.	16b-
.	4c	4e-	8cc
.	.	.	8a
=72	=72	=72	=72
4BB-	4B-	8d	4b-
.	.	8ff	.
4r	4r	8ff	4r
.	.	8ff	.
=73	=73	=73	=73
2r	2r	8ff	2r
.	.	8ff	.
.	.	8ff	.
.	.	8ff	.
=74	=74	=74	=74
4d	2b-	8ff	4r
.	.	8ff	.
4B-	.	8ff	[4ddd
.	.	8ff	.
=75	=75	=75	=75
2e-	4g	8ff	8ddd]
.	.	8ff	16eee-
.	.	.	16ccc
.	4cc	8ff	8aa
.	.	8ff	8ff
=76	=76	=76	=76
4d	2b-	8ff	8bb-
.	.	8ff	8ff
4B-	.	8ff	[4ddd
.	.	8ff	.
=77	=77	=77	=77
2e-	4g	8ff	8ddd]
.	.	8ff	16eee-
.	.	.	16ccc
.	4cc	8ff	8aa
.	.	8ff	8ff
=78	=78	=78	=78
4d	[2b-	8ff	8bb-
.	.	8ff	8ff
4B-	.	8ff	[4ddd
.	.	8ff	.
=79	=79	=79	=79
2E-	4b-]	8gg	8ddd]
.	.	8gg	16eee-
.	.	.	16ddd
.	8g	8gg	8ccc
.	8e-	8gg	8bb-
=80	=80	=80	=80
16F	4c	4ee-	4aa
16c	.	.	.
16F	.	.	.
16c	.	.	.
16F	4d	4dd	4bb-
16B-	.	.	.
16F	.	.	.
16B-	.	.	.
=81	=81	=81	=81
16F	4c	4a	4ee-
16c	.	.	.
16F	.	.	.
16c	.	.	.
16F	8d	4b-	4dd
16B-	.	.	.
16F	8B-	.	.
16B-	.	.	.
=82	=82	=82	=82
16E	8e-	8a	4cc
16F	.	.	.
16E-	8A	8c	.
16F	.	.	.
16D	8B-	8d	4r
16F	.	.	.
16C	8c	8e-	.
16F	.	.	.
=83	=83	=83	=83
16BB-	8d	8f	8r
16F	.	.	.
16E-	4.r	8a	8cc
16F	.	.	.
16D	.	8b-	8dd
16F	.	.	.
16C	.	8cc	8ee-
16F	.	.	.
=84	=84	=84	=84
16AA	8r	8dd	8ff
16BB-	.	.	.
16AA-	8f	4b-	8dd
16BB-	.	.	.
16GG	8B-	.	8ee-
16BB-	.	.	.
16FF	8A-	8b-	8ff
16BB-	.	.	.
=85	=85	=85	=85
8EE-	8G	8b-	8gg
4.r	4.r	4.r	16ff#
.	.	.	16gg
.	.	.	16aa
.	.	.	16gg
.	.	.	16bb-
.	.	.	16aa
=86	=86	=86	=86
2r	2r	2r	16ccc
.	.	.	16bb-
.	.	.	16aa
.	.	.	16gg
.	.	.	16ff
.	.	.	16ee-
.	.	.	16dd
.	.	.	16cc
=87	=87	=87	=87
2r	4e-	4g	16b
.	.	.	16cc
.	.	.	16dd
.	.	.	16cc
.	4r	4r	16ee-
.	.	.	16dd
.	.	.	16ff
.	.	.	16ee-
=88	=88	=88	=88
2r	2r	2r	16gg
.	.	.	16ff
.	.	.	16ee-
.	.	.	16dd
.	.	.	16cc
.	.	.	16b-
.	.	.	16a-
.	.	.	16g
=89	=89	=89	=89
16E	16e	16e	16e
16F	16f	16f	16f
16G	16g	16g	16g
16F	16f	16f	16f
16D	16d	16d	16d
16E-	16e-	16e-	16e-
16F	16f	16f	16f
16E-	16e-	16e-	16e-
=90	=90	=90	=90
16D	16d	16d	16d
16F	16f	16f	16f
16B-	16b-	16b-	16b-
16B-	16b-	16b-	16b-
16E	16e	16e	16e
16F	16f	16f	16f
16E-	16e-	16e-	16e-
16F	16f	16f	16f
=91	=91	=91	=91
16D	16d	16d	16d
16F	16f	16f	16f
16B-	16b-	16b-	16b-
16B-	16b-	16b-	16b-
16E	16e	16e	16e
16F	16f	16f	16f
16E-	16e-	16e-	16e-
16F	16f	16f	16f
=92	=92	=92	=92
8D	8d	8d	16d
.	.	.	16f
8r	8r	8r	16b-
.	.	.	16b-
8D	8f	8b	16d
.	.	.	16f
8r	8r	8r	16b
.	.	.	16b
=93	=93	=93	=93
8E-	8g	8cc	16e-
.	.	.	16g
8r	8r	8r	16cc
.	.	.	16cc
8E	8b-	8dd-	16g
.	.	.	16b-
8r	8r	8r	16dd-
.	.	.	16dd-
=94	=94	=94	=94
4F	4b-	4dd	16f
.	.	.	16b-
.	.	.	16dd
.	.	.	16b-
4r	4r	4r	16ff
.	.	.	16dd
.	.	.	16bb-
.	.	.	16ff
=95	=95	=95	=95
4r	4r	4r	8ddd
.	.	.	8r
8F	8f	8e- 8c	8a 8e-
8r	8r	8r	8r
=96	=96	=96	=96
8BB-	8f	8d 8B-	8d 8b-
4.r	8b-	8dd	4ff
.	8a	8cc	.
.	8f	8a	[8ff
=97	=97	=97	=97
2r	8g	4b-	8ff]
.	8c	.	4ee-
.	8f	8a	.
.	8B-	8b-	8dd
=98	=98	=98	=98
2r	8e-	8.g	8dd
.	8E-	.	8cc
.	.	32f	.
.	.	32e-	.
.	8F	8d	8b-
.	8F	8c	8a
=99	=99	=99	=99
8r	4B-	8d	8b-
8B-	.	8dd	4ff
8A	8r	8cc#	.
8A-	[8f	8cc	8ff
=100	=100	=100	=100
8G	8f]	8b	8ddd
8c	4e-	8cc	8ee-
8F	.	8a	8ccc
8B-	8d	8b-	8dd
=101	=101	=101	=101
8E-	8e-	8g	8gg
8r	8r	8r	24ff
.	.	.	24ee-
.	.	.	24dd
8F	8A	8e-	32cc
.	.	.	32b-
.	.	.	32a
.	.	.	32g
8r	8r	8r	32f
.	.	.	32e-
.	.	.	32d
.	.	.	32c
=102	=102	=102	=102
2BB-	2B-	2B-	2B-
=103	=103	=103	=103
4.AA-	4.A-	4.A-	4.A-
16GG	16G	16G	16G
16AA-	16A-	16A-	16A-
=104	=104	=104	=104
8GG	8G	8G	8G
8E-	8e-	8e-	8e-
8E-	8e-	8e-	8e-
8E-	8e-	8e-	8e-
=105	=105	=105	=105
8AA	8A	8A	8A
8F	8f	8f	8f
8F	8f	8f	8f
8F	8f	8f	8f
=106	=106	=106	=106
2BB-	2B-	2B-	2B-
=107	=107	=107	=107
4.BB	4.B	4.B	4.B
16AA	16A	16A	16A
16BB	16B	16B	16B
=108	=108	=108	=108
8C	8c	8c	8c
8A-	8a-	8a-	8a-
8A-	8a-	8a-	8a-
8A-	8a-	8a-	8a-
=109	=109	=109	=109
4D	4d	8d	8d
.	.	8a-	8b-
4r	4r	8a-	8b-
.	.	8a-	8b-
=110	=110	=110	=110
2E-	8e-	8e-	2r
.	8g-	8b-	.
.	8g-	8b-	.
.	8g-	8b-	.
=111	=111	=111	=111
2F	8A-	8d	8r
.	8a-	8b-	8bb-
.	8a-	8b-	16dd
.	.	.	16ee-
.	8a-	8b-	16ff
.	.	.	16dd
=112	=112	=112	=112
2G-	8g-	8e-	8ee-
.	8e-	8b-	8ee-
.	8e-	8b-	8ee-
.	8e-	8b-	8r
=113	=113	=113	=113
2D	8A-	8B-	8r
.	8a-	8b-	8bb-
.	8a-	8b-	16ff
.	.	.	16gg-
.	8a-	8b-	16aa-
.	.	.	16ff
=114	=114	=114	=114
2E-	8B-	8e-	8gg-
.	8g-	8b-	8gg-
.	8g-	8b-	8gg-
.	8g-	8b-	8r
=115	=115	=115	=115
2F	8A-	8d	8r
.	8a-	8b-	8bb-
.	8a-	8b-	16dd
.	.	.	16ee-
.	8a-	8b-	16ff
.	.	.	16dd
=116	=116	=116	=116
2G-	8g-	8e-	8ee-
.	8e-	8b-	8bb-
.	8e-	8b-	16ee-
.	.	.	16ff
.	8e-	8b-	16gg-
.	.	.	16ee-
=117	=117	=117	=117
2D	8A-	8B-	8ff
.	8a-	8b-	8bb-
.	8a-	8b-	16ff
.	.	.	16gg-
.	8a-	8b-	16aa-
.	.	.	16ff
=118	=118	=118	=118
4E-	8e-	8b-	8gg-
.	8e-	8b-	8gg-
4r	8e-	8b-	8gg-
.	8e-	8b-	8r
=119	=119	=119	=119
2r	8e-	8g-	8ee-
.	8e-	8g-	8ee-
.	8e-	8g-	8ee-
.	8e-	8g-	8r
=120	=120	=120	=120
2r	8e-	8g-	8b-
.	8e-	8g-	8b-
.	8e-	8g-	8b-
.	8e-	8g-	8r
=121	=121	=121	=121
2r	8e-	8g-	8g-
.	8e-	8g-	8g-
.	8e-	8g-	8g-
.	8e-	8g-	8r
=122	=122	=122	=122
8BB-	2r	2r	2r
8BB-	.	.	.
8BB-	.	.	.
8BB-	.	.	.
=123	=123	=123	=123
2r	8f#	2r	8e-
.	8f#	.	8e-
.	8f#	.	8e-
.	8f#	.	8e-
=124	=124	=124	=124
8BB	2r	2r	2r
8BB	.	.	.
8BB	.	.	.
8BB	.	.	.
=125	=125	=125	=125
2r	2r	8d	8f#
.	.	8d	8f#
.	.	8d	8f#
.	.	8d	8f#
=126	=126	=126	=126
8B	8d	8f#	4f#
8B	8d	8f#	.
8B	8d	8f#	4r
8B	8d	8f#	.
=127	=127	=127	=127
2c#	8e	8f#	8r
.	8e	8f#	8ff#
.	8e	8f#	16a#
.	.	.	16b
.	8e	8f#	16cc#
.	.	.	16a#
=128	=128	=128	=128
2d	8d	8B	8b
.	8B	8f#	8b
.	8B	8f#	8b
.	8B	8f#	8r
=129	=129	=129	=129
2A#	8E	8c#	8r
.	8e	8f#	8ff#
.	8e	8f#	16cc#
.	.	.	16dd
.	8e	8f#	16ee
.	.	.	16cc#
=130	=130	=130	=130
2B	8F#	8d	8dd
.	8d	8f#	8dd
.	8d	8f#	8dd
.	8d	8f#	8r
=131	=131	=131	=131
2c#	8E	8A#	8r
.	8e	8f#	8ff#
.	8e	8f#	16a#
.	.	.	16b
.	8e	8f#	16cc#
.	.	.	16a#
=132	=132	=132	=132
2d	8F#	8b	8b
.	8B	8f#	8ff#
.	8B	8f#	16b
.	.	.	16cc#
.	8B	8f#	16dd
.	.	.	16b
=133	=133	=133	=133
2A#	8F#	8e	8cc#
.	8e	8f#	8ff#
.	8e	8f#	16cc#
.	.	.	16dd
.	8e	8f#	16ee
.	.	.	16cc#
=134	=134	=134	=134
8B	8F#	8d	2dd
8B	8d	8f#	.
8B	8d	8f#	.
8B	8d	8f#	.
=135	=135	=135	=135
8D 8A	8c	8d	4.ff#
8A 8D	8c	8cc	.
8D 8A	8c	8a	.
8D 8A	8c	8dd	16ee
.	.	.	16ff#
=136	=136	=136	=136
8G	8B-	8d	8gg
8G	8d	8b-	8gg
8G	8d	8b-	8gg
8G	8d	8b-	8r
=137	=137	=137	=137
4F#	8d	8d	8r
.	8dd	8a	8ddd
4r	8dd	16f#	16aa
.	.	16g	16bb-
.	8dd	16a	16ccc
.	.	16f#	16aa
=138	=138	=138	=138
2r	2dd	8g	8bb-
.	.	8dd	8bb-
.	.	16a	16gg-
.	.	16b-	16gg
.	.	16cc	16aa
.	.	16a	16gg-
=139	=139	=139	=139
8r	8dd	8b-	4gg
8B-	8dd	8dd	.
16F#	16a	8dd	4r
16G	16b-	.	.
16A	16cc	8dd	.
16F#	16a	.	.
=140	=140	=140	=140
4G	8b-	2dd	8r
.	8b-	.	8ddd
4r	16f#	.	16aa
.	16g	.	16bb-
.	16a	.	16ccc
.	16f#	.	16aa
=141	=141	=141	=141
2r	8G	2dd	2bb-
.	8g	.	.
.	8g	.	.
.	8g	.	.
=142	=142	=142	=142
8r	8F	2dd 2g	4.bb
8A-	8f	.	.
16D	8f	.	.
16E-	.	.	.
16F	8f	.	16aa
16D	.	.	16bb
=143	=143	=143	=143
4E-	8g	4cc 4e-	8ccc
.	8ee-	.	8gg
4r	16b	4r	16dd
.	16cc	.	16ee-
.	16dd	.	16ff
.	16b	.	16dd
=144	=144	=144	=144
2r	8cc	8r	4ee-
.	8g	8ee-	.
.	16d	16b	4r
.	16e-	16cc	.
.	16f	16dd	.
.	16d	16b	.
=145	=145	=145	=145
8r	8e-	8cc	8r
8E-	8e-	8gg	8ggg
16BB	16f	8gg	16ddd
16C	16e-	.	16eee-
16D	16d	8gg	16fff
16BB	16f	.	16ddd
=146	=146	=146	=146
4C	8e-	8gg	8eee-
.	8cc	8ee-	8eee-
4r	8cc	8ee-	8eee-
.	8cc	8ee-	8r
=147	=147	=147	=147
2r	8cc	8ee-	8ccc
.	8cc	8ee-	8ccc
.	8cc	8ee-	8ccc
.	8cc	8ee-	8r
=148	=148	=148	=148
2r	8cc	8ee-	8gg
.	8cc	8ee-	8gg
.	8cc	8ee-	8gg
.	8cc	8ee-	8r
=149	=149	=149	=149
2r	8cc	8ee-	8ee-
.	8cc	8ee-	8ee-
.	8cc	8ee-	8ee-
.	8cc	8ee-	8ee-
=150	=150	=150	=150
8AA-	[2a-	2cc	2ee-
8C	.	.	.
8E-	.	.	.
8A-	.	.	.
=151	=151	=151	=151
8c	8a-]	2a-	4cc
8f	8f	.	.
8d	8d	.	4ff
8B-	8B-	.	.
=152	=152	=152	=152
8e-	8e-	8g	8b-
8e-	8e-	8g	8ee-
8B-	8f	8a-	16dd
.	.	.	16ee-
8B-	8f	8a-	16ff
.	.	.	16dd
=153	=153	=153	=153
8E-	8g	8g	8ee-
8E-	8g	8g	8ee-
8E-	8g	8g	8ee-
8r	8r	8r	8r
=154	=154	=154	=154
8BB-	8B-	8B-	8b-
8BB-	8B-	8B-	8b-
8BB-	8B-	8B-	8b-
8r	8r	8r	8r
=155	=155	=155	=155
8EE-	8E-	8e-	8e-
8EE-	8E-	8e-	8e-
8EE-	8E-	8e-	8e-
8r	8r	8r	8r
=156	=156	=156	=156
8BB-	2B-	2dd-	2ff
8D-	.	.	.
8F	.	.	.
8B-	.	.	.
=157	=157	=157	=157
8e-	8e-	4g	4b-
8d-	8d-	.	.
8c	8c	4g-	4ee-
8A-	8c	.	.
=158	=158	=158	=158
8d-	4d-	4f	8dd-
8D-	.	.	16cc
.	.	.	16b-
8E-	16c	8e-	16a-
.	16B-	.	16g
8E-	16d-	8d-	16b-
.	16B-	.	16g
=159	=159	=159	=159
4AA-	4A-	4c	16a-
.	.	.	16e-
.	.	.	16d
.	.	.	16e-
8r	8r	8r	16d
.	.	.	16e-
8E-	8G 8e-	8B-	16d-
.	.	.	16e-
=160	=160	=160	=160
4A-	4e- 4A-	4c	16c
.	.	.	16e-
.	.	.	16a-
.	.	.	16e-
8r	8r	8r	16c
.	.	.	16e-
8E-	8e- 8G	8d-	16B-
.	.	.	16e-
=161	=161	=161	=161
4A-	4e- 4A-	4c	16c
.	.	.	16e-
.	.	.	16a-
.	.	.	16e-
8r	8r	8r	16c
.	.	.	16e-
8E-	8e- 8G	8d-	16B-
.	.	.	16e-
=162	=162	=162	=162
4AA-	4.e-	4c	16c
.	.	.	16e-
.	.	.	16a-
.	.	.	16a-
4F	.	16A	16c
.	.	16c	16e-
.	8c	16e-	16a
.	.	16e-	16a
=163	=163	=163	=163
4BB-	4B-	4d	16b-
.	.	.	16f
.	.	.	16e
.	.	.	16f
8r	8r	8r	16e
.	.	.	16f
8F	8A	8c	16e-
.	.	.	16f
=164	=164	=164	=164
4B-	4B-	4d	16d
.	.	.	16f
.	.	.	16b-
.	.	.	16f
8r	8r	8r	16d
.	.	.	16f
8F	8A	8e-	16c
.	.	.	16f
=165	=165	=165	=165
4B-	4B-	4d	16d
.	.	.	16f
.	.	.	16b-
.	.	.	16f
8r	8r	8r	16d
.	.	.	16f
8F	8A	8e-	16c
.	.	.	16f
=166	=166	=166	=166
4BB-	8B-	4d	16d
.	.	.	16f
.	4f	.	16b-
.	.	.	16b-
4G	.	16B	16d
.	.	16d	16f
.	8d	16f	16b
.	.	16f	16b
=167	=167	=167	=167
4C	4e-	4e-	16cc
.	.	.	16g
.	.	.	16f#
.	.	.	16g
8r	8r	8r	16f#
.	.	.	16g
8G	8B	8d	16f
.	.	.	16g
=168	=168	=168	=168
4c	4c	4e-	16e-
.	.	.	16g
.	.	.	16cc
.	.	.	16g
8r	8r	8r	16f#
.	.	.	16g
8G	8B	8d	16f
.	.	.	16g
=169	=169	=169	=169
2c	8c	2e-	16e-
.	.	.	16ee-
.	4g	.	16dd
.	.	.	16cc
.	.	.	16b
.	.	.	16cc
.	8g	.	16b
.	.	.	16cc
=170	=170	=170	=170
2AA-	8cc	2f#	16f#
.	.	.	16ee-
.	8e-	.	16dd
.	.	.	16cc
.	8d	.	16b
.	.	.	16cc
.	8c	.	16b
.	.	.	16cc
=171	=171	=171	=171
4GG	4d	4g	8b
.	.	.	8gg
4r	4r	4r	8gg
.	.	.	8gg
=172	=172	=172	=172
2r	2r	2r	8gg
.	.	.	8gg
.	.	.	8gg
.	.	.	8gg
=173	=173	=173	=173
8C	2r	2ee-	2gg
8E-	.	.	.
8G	.	.	.
8c	.	.	.
=174	=174	=174	=174
4e-	8r	4cc	4ee-
.	16f#	.	.
.	16g	.	.
4r	16f#	4r	4r
.	16g	.	.
.	16f#	.	.
.	16g	.	.
=175	=175	=175	=175
8BB	4G	2ff	2aa-
8D	.	.	.
8F	4r	.	.
8B	.	.	.
=176	=176	=176	=176
4d	8r	4dd	4ff
.	16f#	.	.
.	16g	.	.
4r	16f#	4r	4r
.	16g	.	.
.	16f#	.	.
.	16g	.	.
=177	=177	=177	=177
8C	4G	2ee-	2gg
8E-	.	.	.
8G	4r	.	.
8c	.	.	.
=178	=178	=178	=178
4e-	8r	4cc	4ee-
.	16f#	.	.
.	16g	.	.
4r	16f#	4r	4r
.	16g	.	.
.	16f#	.	.
.	16g	.	.
=179	=179	=179	=179
8BB	4G	2ff	2aa-
8D	.	.	.
8F	4r	.	.
8B	.	.	.
=180	=180	=180	=180
4d	2r	4dd	4ff
4r	.	4r	4r
=181	=181	=181	=181
8BB-	2r	2ff	2aa-
8D	.	.	.
8F	.	.	.
8B-	.	.	.
=182	=182	=182	=182
4d	2r	4dd	4ff
4r	.	4r	4r
=183	=183	=183	=183
8EE-	2E-	2gg	2bb-
8GG	.	.	.
8BB-	.	.	.
8E-	.	.	.
=184	=184	=184	=184
8G	8e-	2ee-	4gg
8c	8g	.	.
8A	8f	.	4ccc
8F	8a	.	.
=185	=185	=185	=185
8B-	8b-	8dd	8ff
8B-	8dd	8dd	8bb-
8F	16cc	8ee-	16aa
.	16b-	.	16bb-
8F	16a	8ee-	16ccc
.	16cc	.	16aa
=186	=186	=186	=186
8B-	8b-	8dd	8bb-
8B-	8b-	8dd	8bb-
8B-	8b-	8dd	8bb-
8r	8r	8r	8r
=187	=187	=187	=187
8F	8f	8f	8f
8F	8f	8f	8f
8F	8f	8f	8f
8r	8r	8r	8r
=188	=188	=188	=188
8BB-	8B-	8B-	8B-
8BB-	8B-	8B-	8B-
8BB-	8B-	8B-	8B-
8r	8r	8r	8r
=189	=189	=189	=189
8FF	[2f	2aa-	2ccc
8AA-	.	.	.
8C	.	.	.
8F	.	.	.
=190	=190	=190	=190
8B-	8f]	4dd	4ff
8A-	8B-	.	.
8G	8e-	4dd-	4bb-
8E-	8g	.	.
=191	=191	=191	=191
8A-	4a-	4cc	8aa-
8AA-	.	.	16gg
.	.	.	16ff
8BB-	16g	8b-	16ee-
.	16f	.	16dd
8BB-	16a-	8a-	16ff
.	16f	.	16dd
=192	=192	=192	=192
8EE-	4e-	4g	2eee-
8GG	.	.	.
8BB-	[4G	[4B-	.
8E-	.	.	.
=193	=193	=193	=193
8EE-	4G]	4B-]	4.d-
8EE-	.	.	.
8EE-	4G	4B-	.
8EE-	.	.	16c
.	.	.	16d-
=194	=194	=194	=194
8EE-	2A-	2c	8c
8EE-	.	.	16ccc
.	.	.	16bb-
8EE-	.	.	16aa-
.	.	.	16gg
8EE-	.	.	16ff
.	.	.	16ee-
=195	=195	=195	=195
8EE-	4.f	4.a-	16dd
.	.	.	16ee-
8EE-	.	.	16ff
.	.	.	16gg
8EE-	.	.	16aa-
.	.	.	16bb-
8EE-	16e-	16g	16ccc
.	16f	16a-	16ddd
=196	=196	=196	=196
8EE-	4e-	4g	2eee-
8GG	.	.	.
8BB-	[4G	[4B-	.
8E-	.	.	.
=197	=197	=197	=197
8EE-	4G]	4B-]	4.d-
8EE-	.	.	.
8EE-	4G	4B-	.
8EE-	.	.	16c
.	.	.	16d-
=198	=198	=198	=198
8EE-	2A-	2c	8c
8EE-	.	.	16ccc
.	.	.	16bb-
8EE-	.	.	16aa-
.	.	.	16gg
8EE-	.	.	16ff
.	.	.	16ee-
=199	=199	=199	=199
8EE-	4.f	4.a-	16dd
.	.	.	16ee-
8EE-	.	.	16ff
.	.	.	16gg
8EE-	.	.	16aa-
.	.	.	16bb-
8EE-	16e-	16g	16ccc
.	16f	16a-	16ddd
=200	=200	=200	=200
4EE-	8e-	8g	8eee-
.	8g	8b-	8eee-
4r	8f	8a-	16ddd
.	.	.	16eee-
.	8f	8a-	16fff
.	.	.	16ddd
=201	=201	=201	=201
2r	8g	8g	8eee-
.	8ee-	8gg	8ccc
.	8dd	8ff	16bb
.	.	.	16ccc
.	8dd	8ff	16ddd
.	.	.	16bb
=202	=202	=202	=202
2r	8ee-	8gg	8ccc
.	8cc	8ee-	8aa-
.	8b-	8dd-	16gg
.	.	.	16aa-
.	8b-	8dd-	16bb-
.	.	.	16gg
=203	=203	=203	=203
2r	8cc	8cc	8aa-
.	8b-	8dd-	8gg
.	8a-	8cc	16ff
.	.	.	16gg
.	8g	8b-	16ee-
.	.	.	16ff
=204	=204	=204	=204
2r	8f	8a-	16dd
.	.	.	16ee-
.	8e-	8g	16cc
.	.	.	16dd
.	8d	8f	16b-
.	.	.	16cc
.	8c	8e-	16a
.	.	.	16cc
=205	=205	=205	=205
[2BB-	4d	4d	2bb-
.	[4g	[4ee-	.
=206	=206	=206	=206
2BB-_	4g]	4ee-]	4gg
.	4e-	4cc	[4ccc
=207	=207	=207	=207
2BB-_	2a-	2ff	4ccc]
.	.	.	8aa-
.	.	.	8ff
=208	=208	=208	=208
2BB-_	8f	8dd	4bb-
.	8d	8b-	.
.	4g	4ee-	8gg
.	.	.	8ee-
=209	=209	=209	=209
2BB-_	8e-	8cc	4.aa
.	8c	8ee-	.
.	[4e-	[4gg-	.
.	.	.	8ccc
=210	=210	=210	=210
2BB-_	8e-]	8gg-]	8eee-
.	8e-	8gg-	8aa
.	8f	8ff	8aa
.	8g-	8ee-	8aa
=211	=211	=211	=211
4BB-]	4f	8dd	8bb-
.	.	16ff	16aa-
.	.	16gg	16bb-
4r	4r	8aa-	8ccc
.	.	8gg	8bb-
=212	=212	=212	=212
2r	2r	8ff	8aa-
.	.	8ee-	8gg
.	.	8dd	8ff
.	.	8cc	8ee-
=213	=213	=213	=213
2r	2r	8b-	8dd
.	.	16dd	16ff
.	.	16ee-	16gg
.	.	8ff	8aa-
.	.	8ee-	8gg
=214	=214	=214	=214
2r	2r	8dd	8ff
.	.	8cc	8ee-
.	.	8b-	8dd
.	.	8a-	8cc
=215	=215	=215	=215
2d-	2e-	[2g	4.b-
.	.	.	16cc
.	.	.	16dd-
=216	=216	=216	=216
4B-	4d-	8g]	8ee-
.	.	8e-	8g
4e-	4c	8a-	8a-
.	.	8r	8a-
=217	=217	=217	=217
2A-	2B-	2d	4.f
.	.	.	16a-
.	.	.	16b-
=218	=218	=218	=218
4F	4D	4.a-	8cc
.	.	.	8b-
4B-	4d	.	8b-
.	.	8f	8a-
=219	=219	=219	=219
4c	4e-	4e-	8a-
.	.	.	8g
4AA-	4A-	4c	8a-
.	.	.	8f
=220	=220	=220	=220
2BB-	4G	4B-	8f
.	.	.	8e-
.	4F	4A-	8e-
.	.	.	8d
=221	=221	=221	=221
2D-	2E-	[2g	4.b-
.	.	.	16cc
.	.	.	16dd-
=222	=222	=222	=222
4BB-	4D-	8g]	8ee-
.	.	8e-	8g
4E-	4C	8a-	8a-
.	.	8r	8a-
=223	=223	=223	=223
2AA-	2B-	2d	4.f
.	.	.	16a-
.	.	.	16b-
=224	=224	=224	=224
4FF	4D	4.a-	8cc
.	.	.	8b-
4BB-	4d	.	8b-
.	.	8f	8a-
=225	=225	=225	=225
4C	4e-	4e-	8a-
.	.	.	8g
4AA-	4A-	4c	8a-
.	.	.	8f
=226	=226	=226	=226
2BB-	4G	4B-	8f
.	.	.	8e-
.	4F	4A-	8e-
.	.	.	8d
=227	=227	=227	=227
4EE-	4E-	8G	4e-
.	.	8b-	.
4r	4r	8b-	4r
.	.	8b-	.
=228	=228	=228	=228
2r	2r	8b-	2r
.	.	8b-	.
.	.	8b-	.
.	.	8b-	.
=229	=229	=229	=229
2r	4g	8b-	2ee-
.	.	8b-	.
.	4e-	8b-	.
.	.	8b-	.
=230	=230	=230	=230
2r	2a-	8b-	4cc
.	.	8b-	.
.	.	8b-	4ff
.	.	8b-	.
=231	=231	=231	=231
2r	4g	8b-	2ee-
.	.	8b-	.
.	4e-	8b-	.
.	.	8b-	.
=232	=232	=232	=232
2r	2a-	8b-	4cc
.	.	8b-	.
.	.	8b-	4ff
.	.	8b-	.
=233	=233	=233	=233
2r	4g	8b-	2ee-
.	.	8b-	.
.	4e-	8b-	.
.	.	8b-	.
=234	=234	=234	=234
2B-	4f	4a-	4dd
.	4b-	4d	4aa-
=235	=235	=235	=235
4c	4cc	4e-	4gg
4A-	4a-	4cc	4ff
=236	=236	=236	=236
2B-	4g	4b-	8ee-
.	.	.	16dd
.	.	.	16ee-
.	4f	4a-	8ff
.	.	.	8dd
=237	=237	=237	=237
4E-	8e-	4g	4ee-
.	8b-	.	.
4r	8b-	4r	4r
.	8b-	.	.
=238	=238	=238	=238
2r	8b-	2r	2r
.	8b-	.	.
.	8b-	.	.
.	8b-	.	.
=239	=239	=239	=239
4G	8b-	2e-	4r
.	8b-	.	.
4E-	8b-	.	[4gg
.	8b-	.	.
=240	=240	=240	=240
2A-	8b-	4c	8gg]
.	8b-	.	16aa-
.	.	.	16ff
.	8b-	4f	8dd
.	8b-	.	8b-
=241	=241	=241	=241
4G	8b-	2e-	8ee-
.	8b-	.	8b-
4E-	8b-	.	[4gg
.	8b-	.	.
=242	=242	=242	=242
2A-	8b-	4c	8gg]
.	8b-	.	16aa-
.	.	.	16ff
.	8b-	4f	8dd
.	8b-	.	8b-
=243	=243	=243	=243
4G	8b-	[2e-	8ee-
.	8b-	.	8b-
4E-	8b-	.	[4gg
.	8b-	.	.
=244	=244	=244	=244
2AA-	8cc	4e-]	8gg]
.	8cc	.	16aa-
.	.	.	16gg
.	8cc	8cc	8ff
.	8cc	8a-	8ee-
=245	=245	=245	=245
16BB-	4a-	4f	4dd
16F	.	.	.
16BB-	.	.	.
16F	.	.	.
16BB-	4g	4g	4ee-
16E-	.	.	.
16BB-	.	.	.
16E-	.	.	.
=246	=246	=246	=246
16BB-	4f	4d	4a-
16F	.	.	.
16BB-	.	.	.
16F	.	.	.
16BB-	8g	4e-	4g
16E-	.	.	.
16BB-	8e-	.	.
16E-	.	.	.
=247	=247	=247	=247
16AA	8B-	8d	4f
16BB-	.	.	.
16AA-	8d	8f	.
16BB-	.	.	.
16GG	8e-	8g	4r
16BB-	.	.	.
16FF	8f	8a-	.
16BB-	.	.	.
=248	=248	=248	=248
16EE-	8g	8b-	8r
16BB-	.	.	.
16AA-	4.r	8d	8f
16BB-	.	.	.
16GG	.	8e-	8g
16BB-	.	.	.
16FF	.	8f	8a-
16BB-	.	.	.
=249	=249	=249	=249
4EE-	8r	8g	8b-
.	16d-	8b-	8g
.	16e-	.	.
4r	16c	8cc	8a-
.	16e-	.	.
.	16B-	8dd-	8b-
.	16e-	.	.
=250	=250	=250	=250
2r	8A-	8ee-	8cc
.	16e-	8a	8cc
.	16f	.	.
.	16d	8b-	8dd
.	16f	.	.
.	16c	8cc	8ee-
.	16f	.	.
=251	=251	=251	=251
2r	8B-	8dd	8ff
.	16f	8b	8dd
.	16g	.	.
.	16e-	8cc	8ee-
.	16g	.	.
.	16d	8dd	8ff
.	16g	.	.
=252	=252	=252	=252
2r	4c	16ee-	8gg
.	.	16cc	.
.	.	16b-	8ee
.	.	16cc	.
.	4r	16a-	8ff
.	.	16cc	.
.	.	16g	8gg
.	.	16cc	.
=253	=253	=253	=253
8r	2r	8f	16aa-
.	.	.	16bb-
8F	.	8a-	16ccc
.	.	.	16bb-
8A-	.	8cc	16aa-
.	.	.	16gg
8A	.	8ee-	16ff
.	.	.	16ee-
=254	=254	=254	=254
[2B-	8r	16dd	8dd
.	.	16b-	.
.	8d	16a	8bb-
.	.	16b-	.
.	8e-	16a-	8ccc
.	.	16b-	.
.	8f	16f	8ddd
.	.	16b-	.
=255	=255	=255	=255
2B-_	2g	2e-	16eee-
.	.	.	16bb-
.	.	.	16eee-
.	.	.	16bb-
.	.	.	16eee-
.	.	.	16bb-
.	.	.	16gg
.	.	.	16ee-
=256	=256	=256	=256
2B-_	8f	8d	16bb-
.	.	.	16bb-
.	8d	8b-	16aa
.	.	.	16bb-
.	8e-	8cc	16aa-
.	.	.	16bb-
.	8f	8dd	16ff
.	.	.	16bb-
=257	=257	=257	=257
2B-_	2g	2ee-	16gg
.	.	.	16bb-
.	.	.	16ccc
.	.	.	16bb-
.	.	.	16eee-
.	.	.	16bb-
.	.	.	16gg
.	.	.	16ee-
=258	=258	=258	=258
4B-]	4f	4dd	8dd
.	.	.	16b-
.	.	.	16a
4r	4r	4r	16b-
.	.	.	16cc
.	.	.	16dd
.	.	.	16ee-
=259	=259	=259	=259
4B-	4f	4dd	16ff
.	.	.	16ee-
.	.	.	16dd
.	.	.	16cc
4r	4r	4r	16dd
.	.	.	16ee-
.	.	.	16ff
.	.	.	16gg
=260	=260	=260	=260
[2BB-	[2F	[2A- [2d	16aa-
.	.	.	16ff
.	.	.	16dd
.	.	.	16b-
.	.	.	16a-
.	.	.	16f
.	.	.	16d
.	.	.	16B-
=261	=261	=261	=261
2BB-]	2F]	2A-] 2d]	16A
.	.	.	16B-
.	.	.	16A
.	.	.	16B-
.	.	.	16A
.	.	.	16B-
.	.	.	16A-
.	.	.	16B-
=262	=262	=262	=262
16GG	16G	16G	16G
16BB-	16B-	16B-	16B-
16E-	16e-	16e-	16e-
16E-	16e-	16e-	16e-
16AA	16A	16A	16A
16BB-	16B-	16B-	16B-
16AA-	16A-	16A-	16A-
16BB-	16B-	16B-	16B-
=263	=263	=263	=263
16GG	16G	16G	16G
16BB-	16B-	16B-	16B-
16E-	16e-	16e-	16e-
16E-	16e-	16e-	16e-
16AA	16A	16A	16A
16BB-	16B-	16B-	16B-
16AA-	16A-	16A-	16A-
16BB-	16B-	16B-	16B-
=264	=264	=264	=264
8GG	8G	8G	16G
.	.	.	16B-
8r	8r	8r	16e-
.	.	.	16e-
8AA-	8c	8f	16A-
.	.	.	16c
8r	8r	8r	16f
.	.	.	16f
=265	=265	=265	=265
8BB-	8d	8g	16B-
.	.	.	16d
8r	8r	8r	16g
.	.	.	16g
8C	8e-	8a-	16c
.	.	.	16e-
8r	8r	8r	16a-
.	.	.	16a-
=266	=266	=266	=266
[2D	[2f	[2B- [2a-	16d
.	.	.	16f
.	.	.	16g
.	.	.	16a-
.	.	.	16b-
.	.	.	16cc
.	.	.	16dd
.	.	.	16ee-
=267	=267	=267	=267
2D]	2f]	2B-] 2a-]	16ff
.	.	.	16gg
.	.	.	16aa-
.	.	.	16bb-
.	.	.	8ccc
.	.	.	8ccc
=268	=268	=268	=268
8E-	4g	4g	8bb-
8r	.	.	8eee-
8A-	8r	8r	8r
8r	8cc	8ff	8aa-
=269	=269	=269	=269
8B-	8r	8r	8r
8r	8b-	8ee-	8gg
8BB-	8r	8r	8r
8r	8a-	8dd	8ff
=270	=270	=270	=270
4E-	8g	8ee-	8ee-
.	8ee-	8gg	4bb-
4r	8dd	8ff	.
.	8b-	8dd	[8bb-
=271	=271	=271	=271
2r	8cc	4ee-	8bb-]
.	8f	.	4aa-
.	8b-	8dd	.
.	8e-	8ee-	8gg
=272	=272	=272	=272
2r	8a-	8.cc	8gg
.	8A-	.	8ff
.	.	32b-	.
.	.	32a-	.
.	8B-	8g	8ee-
.	8B-	8f	8dd
=273	=273	=273	=273
8r	4e-	8g	8ee-
8E-	.	8gg	4bb-
8D	8r	8ff#	.
8D-	[8b-	8ff	8bb-
=274	=274	=274	=274
8C	8b-]	8ee	8ggg
8F	4a-	8ff	8aa-
8BB-	.	8dd	8fff
8E-	8g	8ee-	8gg
=275	=275	=275	=275
8AA-	8a-	8cc	8ccc
8r	8r	8r	24bb-
.	.	.	24aa-
.	.	.	24gg
8BB-	8d	8a-	32ff
.	.	.	32ee-
.	.	.	32dd
.	.	.	32cc
8r	8r	8r	32b-
.	.	.	32a-
.	.	.	32g
.	.	.	32f
=276	=276	=276	=276
2E-	2E-	2e-	2e-
=277	=277	=277	=277
4.D-	4.D-	4.d-	4.d-
16C	16C	16c	16c
16D-	16D-	16d-	16d-
=278	=278	=278	=278
8C	8C	8c	8c
8A-	8A-	8a-	8a-
8A-	8A-	8a-	8a-
8A-	8A-	8a-	8a-
=279	=279	=279	=279
8D	8D	8d	8d
8B-	8B-	8b-	8b-
8B-	8B-	8b-	8b-
8B-	8B-	8b-	8b-
=280	=280	=280	=280
2E-	2E-	2e-	2e-
=281	=281	=281	=281
4.E	4.E	4.e	4.e
16D	16D	16d	16d
16E	16E	16e	16e
=282	=282	=282	=282
8F	8F	8f	8f
8A-	8A-	8a-	8a-
8A-	8A-	8a-	8a-
8A-	8A-	8a-	8a-
=283	=283	=283	=283
8C-	8c-	8c-	8c-
8A-	8A-	8a-	8a-
8A-	8A-	8a-	8a-
8A-	8A-	8a-	8a-
=284	=284	=284	=284
8BB-	8B-	8B-	8B-
8A-	8a-	8a-	8a-
8A-	8a-	8a-	8a-
8A-	8a-	8a-	8a-
=285	=285	=285	=285
8D	8d	8d	8d
8A-	8a-	8a-	8a-
8A-	8a-	8a-	8a-
8A-	8a-	8a-	8a-
=286	=286	=286	=286
8F	8f	8f	8f
8A-	8a-	8a-	8a-
8A-	8a-	8a-	8a-
8A-	8a-	8a-	8a-
=287	=287	=287	=287
4D	4d	8d	8d
.	.	8a-	8b-
4r	4r	8a-	8b-
.	.	8a-	8b-
=288	=288	=288	=288
2r	2r	8f	8f
.	.	8a-	8b-
.	.	8a-	8b-
.	.	8a-	8b-
=289	=289	=289	=289
2r	2r	8d	8d
.	.	8a-	8cc-
.	.	8a-	8cc-
.	.	8a-	8cc-
=290	=290	=290	=290
2d	[2a-	[2cc-	8r
.	.	.	8ff
.	.	.	8ff
.	.	.	8ff
=291	=291	=291	=291
2e-	2a-_	2cc-_	8r
.	.	.	8gg-
.	.	.	8gg-
.	.	.	8gg-
=292	=292	=292	=292
2f	2a-_	2cc-_	8r
.	.	.	8ff
.	.	.	8ff
.	.	.	8ff
=293	=293	=293	=293
2g-	2a-_	2cc-_	8r
.	.	.	8ee-
.	.	.	8ee-
.	.	.	8ee-
=294	=294	=294	=294
2f	2a-_	2cc-_	8r
.	.	.	8dd
.	.	.	8dd
.	.	.	8dd
=295	=295	=295	=295
2e-	2a-_	2cc-_	8r
.	.	.	8gg-
.	.	.	8gg-
.	.	.	8gg-
=296	=296	=296	=296
2d	2a-_	2cc-_	8r
.	.	.	8ff
.	.	.	8ff
.	.	.	8ff
=297	=297	=297	=297
2g-	2a-_	2cc-_	8r
.	.	.	8ee-
.	.	.	8ee-
.	.	.	8ee-
=298	=298	=298	=298
[2f	2a-_	2cc-_	8r
.	.	.	8dd
.	.	.	8dd
.	.	.	8dd
=299	=299	=299	=299
2f]	2a-]	2cc-]	8ccc-
.	.	.	8dd
.	.	.	8dd
.	.	.	8dd
=300	=300	=300	=300
4g	4g	8b-	4ee-
.	.	8b-	.
4r	4e-	8b-	[4gg
.	.	8b-	.
=301	=301	=301	=301
8r	2a-	8b-	8gg]
8D	.	8b-	16aa-
.	.	.	16ff
8F	.	8b-	8dd
8A-	.	8b-	8b-
=302	=302	=302	=302
8r	4g	8b-	8ee-
8G	.	8b-	8b-
8B-	4e-	8b-	[4gg
8e-	.	8b-	.
=303	=303	=303	=303
8r	2a-	8b-	8gg]
8D	.	8b-	16aa-
.	.	.	16ff
8F	.	8b-	8dd
8A-	.	8b-	8b-
=304	=304	=304	=304
2G	8g	2e-	8ee-
.	8e-	.	16bb-
.	.	.	16gg
.	8B-	.	8ee-
.	8G	.	8eee-
=305	=305	=305	=305
2A-	8c	2f	8r
.	8f	.	16ccc
.	.	.	16aa-
.	8a-	.	8ff
.	8cc	.	8cc
=306	=306	=306	=306
2B-	2e-	2g	8r
.	.	.	16bb-
.	.	.	16gg
.	.	.	8ee-
.	.	.	8b-
=307	=307	=307	=307
2BB-	2d	2a-	8r
.	.	.	16aa-
.	.	.	16ff
.	.	.	8dd
.	.	.	8b-
=308	=308	=308	=308
8r	8r	2gg	2bb-
16GG	16B-	.	.
16BB-	16e-	.	.
8E-	8g	.	.
8G	8b-	.	.
=309	=309	=309	=309
8r	8r	2ff	2aa-
16AA-	16c	.	.
16C	16f	.	.
8F	8a-	.	.
8A-	8cc	.	.
=310	=310	=310	=310
8r	8r	2ee-	2gg
16BB-	16G	.	.
16E-	16B-	.	.
8G	8e-	.	.
8B-	8g	.	.
=311	=311	=311	=311
8r	8r	2dd	2ff
16BB-	16A-	.	.
16D	16f	.	.
8F	8a-	.	.
8B-	8A-	.	.
=312	=312	=312	=312
8E-	8G	8ee-	8ee-
8r	8g	8r	8bb-
8BB-	16f	8a- 8B-	16dd
.	16e-	.	16ee-
8r	16d	8r	16ff
.	16f	.	16dd
=313	=313	=313	=313
8E-	8e-	8g 8B-	8ee-
8r	8g	8r	8bb-
8BB-	16f	8a- 8B-	16dd
.	16e-	.	16ee-
8r	16d	8r	16ff
.	16f	.	16dd
=314	=314	=314	=314
4E-	4e-	4g 4B-	4ee-
4EE-	4e-	4G 4e-	4b- 4gg 4e-
=315	=315	=315	=315
4EE-	4E-	4G 4e-	4e- 4G
4r	4r	4r	4r
==	==	==	==
*-	*-	*-	*-
!!!RWG1: This file contains only pitch and duration data.
!!!RWG2: Transposing instruments are not transposed.
!!!RWG3: Spines may have incompatible meters.
!!!RWG4: Durations of rests and tied notes may be interpreted.
!!!RWG: Key is interpreted using the Humdrum key tool.
!!!GTL: 6 Quartetti ("Apponyi")
!!!AFT: stage1
!!!END: 1997/04/15
!!!KEY: 2917512891
!!!EMD: Converted from MuseData to Humdrum Dec 16, 2000, by Andreas Kornstaedt using muse2kern.
!!!EMD: Manual editing by Craig Sapp, Nov 2001
